lib/healthicons/icons/solid/typography/H.svg

<svg fill="none" height="48" viewBox="0 0 48 48" width="48" xmlns="http://www.w3.org/2000/svg"><path clip-rule="evenodd" d="m16 10c1.1046 0 2 .8954 2 2v10h12v-10c0-1.1046.8954-2 2-2s2 .8954 2 2v24c0 1.1046-.8954 2-2 2s-2-.8954-2-2v-10h-12v10c0 1.1046-.8954 2-2 2s-2-.8954-2-2v-24c0-1.1046.8954-2 2-2z" fill="#333" fill-rule="evenodd"/></svg>

<svg width="48" height="48" viewBox="0 0 48 48" fill="none" xmlns="http://www.w3.org/2000/svg">
<path fill-rule="evenodd" clip-rule="evenodd" d="M16 10C17.1046 10 18 10.8954 18 12V22H30V12C30 10.8954 30.8954 10 32 10C33.1046 10 34 10.8954 34 12V36C34 37.1046 33.1046 38 32 38C30.8954 38 30 37.1046 30 36V26H18V36C18 37.1046 17.1046 38 16 38C14.8954 38 14 37.1046 14 36V12C14 10.8954 14.8954 10 16 10Z" fill="#333333"/>
</svg>
